storage/app/icons/phosphoricons/fill/van-fill.svg

<svg xmlns="http://www.w3.org/2000/svg" fill="currentColor" viewBox="0 0 256 256"><path d="m254.07 106.79-45.54-53.06A16 16 0 0 0 196.26 48H32a16 16 0 0 0-16 16v112a16 16 0 0 0 16 16h17a32 32 0 0 0 62 0h50a32 32 0 0 0 62 0h17a16 16 0 0 0 16-16v-64a8 8 0 0 0-1.93-5.21M32 104V64h56v40Zm48 96a16 16 0 1 1 16-16 16 16 0 0 1-16 16m80-96h-56V64h56Zm32 96a16 16 0 1 1 16-16 16 16 0 0 1-16 16m-16-96V64h20.26l34.33 40Z"/></svg>

<svg xmlns="http://www.w3.org/2000/svg" viewBox="0 0 256 256" fill="currentColor"><path d="M254.07,106.79,208.53,53.73A16,16,0,0,0,196.26,48H32A16,16,0,0,0,16,64V176a16,16,0,0,0,16,16H49a32,32,0,0,0,62,0h50a32,32,0,0,0,62,0h17a16,16,0,0,0,16-16V112A8,8,0,0,0,254.07,106.79ZM32,104V64H88v40Zm48,96a16,16,0,1,1,16-16A16,16,0,0,1,80,200Zm80-96H104V64h56Zm32,96a16,16,0,1,1,16-16A16,16,0,0,1,192,200Zm-16-96V64h20.26l34.33,40Z"/></svg>
